mouse-move-vertical.svg

<svg fill="currentColor" viewBox="0 0 24 24"><path d="M20 6h3l-4-4-4 4h3v12h-3l4 4 4-4h-3zM9 3.09c2.83.48 5 2.95 5 5.91H9zM14 11v4c0 3.3-2.7 6-6 6s-6-2.7-6-6v-4zM7 9H2c0-2.96 2.17-5.43 5-5.91z"/></svg>

<svg  viewBox="0 0 24 24" fill="currentColor"><path  d="M20 6H23L19 2L15 6H18V18H15L19 22L23 18H20V6M9 3.09C11.83 3.57 14 6.04 14 9H9V3.09M14 11V15C14 18.3 11.3 21 8 21S2 18.3 2 15V11H14M7 9H2C2 6.04 4.17 3.57 7 3.09V9Z"/></svg>
